public/build/img/bed-icon.svg

<svg width="32" height="32" viewBox="0 0 32 32" fill="none" xmlns="http://www.w3.org/2000/svg">
<g clip-path="url(#clip0_170_139)">
<path d="M15.25 4.55C15.25 4.55 13.95 5.1 12.5 3.7C11.65 2.9 10.2 2.2 9.6 2H9.05C9.05 2 7.15 2 5.15 3.7C3.95 4.7 2.85 4.8 2.65 4.55H2.1C1.4 6.1 0 5.9 0 5.9V21.1H17.1L15.8 4.55H15.25Z" fill="#3E4347"/>
<path d="M15.8 4.55C15.8 4.55 14.5 5.1 13.05 3.7C11.3 2 9.59999 2 9.59999 2C9.59999 2 7.69999 2 5.69999 3.7C4.04999 5.1 2.64999 4.55 2.64999 4.55C1.94999 6.1 0.549988 5.95 0.549988 5.95V21.15H17.65V5.9C17.65 5.9 16.4 6.1 15.8 4.55" fill="#62696D"/>
<path d="M0.549988 17.75L11.25 23.5V28L0.549988 21.1V17.75Z" fill="#3E4347"/>
<path d="M11.25 28L32 24.5V20.5L11.25 23.5V28ZM10.75 27.7L10.95 29.8L11.25 30V28L10.75 27.7Z" fill="#62696D"/>
<path d="M11.25 30L11.95 29.8L12.3 27.85L11.25 28V30ZM31.8 26.5V24.55L30.45 24.8L30.9 26.65L31.8 26.5ZM0.200012 21.1V22.7H0.950012L1.45001 21.1H0.200012Z" fill="#3E4347"/>
<path d="M0.549988 17.75L11.25 23.5L32 20.5L17.5 15.5L0.549988 17.75Z" fill="#94989B"/>
<path d="M1.14999 14.85L11.6 19V22.8L1.14999 17.65V14.85Z" fill="#DAE3EA"/>
<path d="M11.6 22.8L30.95 20.25V16.85L11.6 19V22.8Z" fill="#FFDD7D"/>
<path d="M1.14999 14.85L11.6 19L30.95 16.85L17.65 13.5L1.14999 14.85Z" fill="white"/>
<path d="M2.04999 12.8C2.04999 12.8 2.64999 14.4 4.54999 15.15C4.54999 15.15 7.39999 14.3 11.2 14.35C11.2 14.35 9.69999 13 9.29999 11.85C9.29999 11.9 5.99999 10.7 2.04999 12.8V12.8ZM10.7 12.1C10.7 12.1 11.1 13.7 12.4 14.45C12.4 14.45 14.35 13.6 16.9 13.65C16.9 13.65 15.9 12.3 15.6 11.15C15.65 11.2 13.4 10 10.7 12.1" fill="#B2C1C0"/>
<path d="M3.75 11.6C3.75 11.6 5.05 13.35 5.65 15.7C5.65 15.7 8.5 14.55 12.3 14.6C12.3 14.6 10.8 12.7 10.4 11.15C10.4 11.15 7.6 10.6 3.75 11.6V11.6ZM11.3 11.1C11.3 11.1 12.45 12.7 13 14.8C13 14.8 15.55 13.75 18.95 13.8C18.95 13.8 17.6 12.1 17.25 10.7C17.25 10.7 14.75 10.2 11.3 11.1Z" fill="#DAE3EA"/>
<path d="M5.90001 20C5.90001 20 5.60001 17.9 5.75001 17.3C5.85001 16.85 6.35001 16.2 6.60001 15.95C7.30001 15.4 9.75001 15.2 9.75001 15.2C9.75001 15.2 18.6 13.95 21.5 14.05C21.95 14.05 23.15 14.85 23.15 14.85L9.35001 16.6L7.85001 19.25L7.70001 20.95L5.90001 20" fill="#A53838"/>
<path d="M8.7 17.85L7.9 19.25L7.75 20.9L11.6 22.8V19L8.7 17.85Z" fill="#A53838"/>
<path d="M11.6 19V22.8L30.95 20.25V16.85L11.6 19Z" fill="#ED4C5C"/>
<path d="M8.70001 17.85L11.6 19L30.95 16.85L23.05 14.85L9.40001 16.55L8.70001 17.85Z" fill="#C94747"/>
<path d="M27.2 15.9C27.2 15.9 26.85 15.3 26.7 15.15C26.5 15 25.9 14.95 25.9 14.95C25.9 14.95 25.7 14.5 25.6 14.45C25.35 14.35 24.65 14.8 24.65 14.8C24.65 14.8 24.25 14.25 24.1 14.25C20.45 14.25 12.8 15.15 9.25001 16.2C8.85001 16.3 8.25001 17.25 8.05001 17.7C7.55001 18.7 6.90001 21 6.75001 22.25C6.60001 23.4 7.30001 26.7 7.30001 26.7C7.30001 26.7 7.90001 24.45 8.45001 23.8C8.70001 23.5 8.95001 25.15 8.95001 25.15C8.95001 25.15 9.40001 23.05 9.55001 22.85C9.75001 22.6 10.05 24.1 10.05 24.1C10.05 24.1 10.35 20.8 10.6 20C10.75 19.45 11.3 18.5 11.65 18.35C15.15 16.8 22.5 15.55 26.1 15.65C26.3 15.7 27.2 15.9 27.2 15.9" fill="#ED4C5C"/>
</g>
<defs>
<clipPath id="clip0_170_139">
<rect width="32" height="32" fill="white"/>
</clipPath>
</defs>
</svg>

<svg width="32" height="32" fill="none" xmlns="http://www.w3.org/2000/svg"><g clip-path="url(#clip0_170_139)"><path d="M15.25 4.55s-1.3.55-2.75-.85c-.85-.8-2.3-1.5-2.9-1.7h-.55s-1.9 0-3.9 1.7c-1.2 1-2.3 1.1-2.5.85H2.1C1.4 6.1 0 5.9 0 5.9v15.2h17.1L15.8 4.55h-.55z" fill="#3E4347"/><path d="M15.8 4.55s-1.3.55-2.75-.85C11.3 2 9.6 2 9.6 2S7.7 2 5.7 3.7c-1.65 1.4-3.05.85-3.05.85-.7 1.55-2.1 1.4-2.1 1.4v15.2h17.1V5.9s-1.25.2-1.85-1.35" fill="#62696D"/><path d="M.55 17.75l10.7 5.75V28L.55 21.1v-3.35z" fill="#3E4347"/><path d="M11.25 28L32 24.5v-4l-20.75 3V28zm-.5-.3l.2 2.1.3.2v-2l-.5-.3z" fill="#62696D"/><path d="M11.25 30l.7-.2.35-1.95-1.05.15v2zm20.55-3.5v-1.95l-1.35.25.45 1.85.9-.15zM.2 21.1v1.6h.75l.5-1.6H.2z" fill="#3E4347"/><path d="M.55 17.75l10.7 5.75 20.75-3-14.5-5L.55 17.75z" fill="#94989B"/><path d="M1.15 14.85L11.6 19v3.8L1.15 17.65v-2.8z" fill="#DAE3EA"/><path d="M11.6 22.8l19.35-2.55v-3.4L11.6 19v3.8z" fill="#FFDD7D"/><path d="M1.15 14.85L11.6 19l19.35-2.15-13.3-3.35-16.5 1.35z" fill="#fff"/><path d="M2.05 12.8s.6 1.6 2.5 2.35c0 0 2.85-.85 6.65-.8 0 0-1.5-1.35-1.9-2.5 0 .05-3.3-1.15-7.25.95zm8.65-.7s.4 1.6 1.7 2.35c0 0 1.95-.85 4.5-.8 0 0-1-1.35-1.3-2.5.05.05-2.2-1.15-4.9.95" fill="#B2C1C0"/><path d="M3.75 11.6s1.3 1.75 1.9 4.1c0 0 2.85-1.15 6.65-1.1 0 0-1.5-1.9-1.9-3.45 0 0-2.8-.55-6.65.45zm7.55-.5s1.15 1.6 1.7 3.7c0 0 2.55-1.05 5.95-1 0 0-1.35-1.7-1.7-3.1 0 0-2.5-.5-5.95.4z" fill="#DAE3EA"/><path d="M5.9 20s-.3-2.1-.15-2.7c.1-.45.6-1.1.85-1.35.7-.55 3.15-.75 3.15-.75s8.85-1.25 11.75-1.15c.45 0 1.65.8 1.65.8L9.35 16.6l-1.5 2.65-.15 1.7L5.9 20" fill="#A53838"/><path d="M8.7 17.85l-.8 1.4-.15 1.65 3.85 1.9V19l-2.9-1.15z" fill="#A53838"/><path d="M11.6 19v3.8l19.35-2.55v-3.4L11.6 19z" fill="#ED4C5C"/><path d="M8.7 17.85L11.6 19l19.35-2.15-7.9-2-13.65 1.7-.7 1.3z" fill="#C94747"/><path d="M27.2 15.9s-.35-.6-.5-.75c-.2-.15-.8-.2-.8-.2s-.2-.45-.3-.5c-.25-.1-.95.35-.95.35s-.4-.55-.55-.55c-3.65 0-11.3.9-14.85 1.95-.4.1-1 1.05-1.2 1.5-.5 1-1.15 3.3-1.3 4.55-.15 1.15.55 4.45.55 4.45s.6-2.25 1.15-2.9c.25-.3.5 1.35.5 1.35s.45-2.1.6-2.3c.2-.25.5 1.25.5 1.25s.3-3.3.55-4.1c.15-.55.7-1.5 1.05-1.65 3.5-1.55 10.85-2.8 14.45-2.7.2.05 1.1.25 1.1.25" fill="#ED4C5C"/></g><defs><clipPath id="clip0_170_139"><path fill="#fff" d="M0 0h32v32H0z"/></clipPath></defs></svg>
